local/share/icons/dracula-icons-main/scalable/apps/GDevelop.svg

<?xml version="1.0" encoding="UTF-8"?>
<svg xmlns="http://www.w3.org/2000/svg" xmlns:xlink="http://www.w3.org/1999/xlink" width="64" height="64" viewBox="0 0 64 64">
<path fill-rule="nonzero" fill="rgb(39.215686%, 29.411765%, 49.019608%)" fill-opacity="1" d="M 32 5 C 46.910156 5 59 17.085938 59 32 C 59 46.910156 46.910156 59 32 59 C 17.085938 59 5 46.910156 5 32 C 5 17.085938 17.085938 5 32 5 Z M 32 5 "/>
<path fill-rule="nonzero" fill="rgb(47.058824%, 76.078431%, 87.843137%)" fill-opacity="1" d="M 34.347656 19.085938 C 26.128906 19.085938 23.78125 22.949219 23.78125 28.476562 C 23.78125 34.007812 26.128906 37.871094 34.347656 37.871094 C 36.695312 37.871094 38.6875 37.28125 38.6875 37.28125 L 41.390625 28.476562 C 41.941406 26.679688 42.226562 26.128906 40.214844 26.128906 L 32.585938 26.128906 C 31.609375 26.128906 30.824219 26.914062 30.824219 27.890625 C 30.824219 28.867188 31.609375 29.652344 32.585938 29.652344 L 36.375 29.652344 L 35.109375 34.289062 C 35.109375 34.289062 34.882812 34.347656 34.347656 34.347656 C 29.066406 34.347656 27.304688 32.449219 27.304688 28.476562 C 27.304688 24.507812 29.066406 22.609375 34.347656 22.609375 L 47.261719 22.609375 L 46.085938 19.085938 Z M 16.738281 26.128906 L 16.738281 29.652344 C 16.738281 38.082031 22.609375 44.914062 34.347656 44.914062 C 41.390625 44.914062 44.910156 42.566406 47.261719 39.042969 L 42.445312 39.042969 C 40.6875 40.21875 39.042969 41.390625 34.347656 41.390625 C 26.128906 41.390625 20.261719 36.136719 20.261719 29.652344 L 20.261719 26.128906 Z M 16.738281 26.128906 "/>
</svg>

<svg width="64" height="64" version="1.1" viewBox="0 0 64 64" xmlns="http://www.w3.org/2000/svg">
 <g transform="matrix(1.1739 0 0 1.1739 3.8261 3.8261)" stroke-width=".85185">
  <path d="m24 1c12.703 0 23 10.297 23 23s-10.297 23-23 23-23-10.297-23-23 10.297-23 23-23z" fill="#644b7d" stroke-width=".85185"/>
 </g>
 <path d="m34.347 19.087c-8.2174 0-10.565 3.8633-10.565 9.3913s2.3478 9.3913 10.565 9.3913c2.3478 0 4.3423-0.58696 4.3423-0.58696l2.7012-8.8043c0.55174-1.7973 0.837-2.3478-1.1739-2.3478h-7.6304c-0.97552 0-1.7609 0.78535-1.7609 1.7609 0 0.97552 0.78535 1.7609 1.7609 1.7609h3.7882l-1.2631 4.6358s-0.22656 0.05987-0.76304 0.05987c-5.2826 0-7.0435-1.9006-7.0435-5.8696s1.7609-5.8696 7.0435-5.8696h12.913l-1.1739-3.5217h-11.739zm-17.609 7.0435v3.5217c0 8.4287 5.8696 15.261 17.609 15.261 7.0435 0 10.565-2.3478 12.913-5.8696h-4.813c-1.7609 1.1739-3.4043 2.3478-8.1 2.3478-8.2174 0-14.087-5.2556-14.087-11.739v-3.5217z" fill="#78c2e0"/>
</svg>
